X:787
T:Bridge Over the River Ash
O:england
M:2/8
L:1/8
Q:200
N:Fiddle-L, 6/99
K:G
d/2d3[|g4|f4|e4|d2ef|g2d2|B2c2|{ABA}AG2|F2D2|
g4|f4|e4|d2ef|g2A2|^c2d2-|d4-|dd/2d3|
g4|f4|e4|d2ef|g2d2|B2c2|{ABA}AG2|F2D2|
g4|f4|e4|d2ef|g2A2|^c2d2-|d4-|dAA2|]
[|c4|B4|d2AB|cAB2|g2AB|cAB2|D2d2-|ddd2|
c4|B4|{f}g2f2|e2d2|c2B2|A2G2-|G4-|1G2DD2:|2G4|]
d4|a4|


